X:1
T:Bethena
T:Bethena
T:Ragtime Waltz. Scott Joplin.  Arr solo guitar G.Dempsey
C:Scott Joplin
%%score ( 1 2 )
L:1/8
Q:1/4=90
M:3/4
K:G
V:1 treble-8 nm="Acoustic Guitar" snm="Guit."
V:2 treble-8 
V:1
"^CIII...................................  CV..............................................................................     CVII.........................  CIII............................." a g2 b a2 | %1
 a g2 b a2 | a c'2 b a2 | g6 | e a2 e g2 | B e2 B d2 | G B2 G B2 | a6 | a g2 b a2 | a g2 b a2 | %10
 a c'2 b a2 | g6 | [ce] a2 e g2 | B e2 B dD | ^c [gb]2 =c [fa]2 | [Gdg]6!fine! :| %16
[K:Bb]"^CVI................................................................................     CX.............................................   CVIII........................" d g2 f ga | %17
 b6 | d' c'2 f' =e'_e' | d'6 |"^CVI......................................" b g2 b g2 | %21
 [dg] f2 g d2 | [Bd] B2 d c2 | c6 | d g2 f ga | b6 | d' c'2 f' =e'_e' | d'6 | b g2 b g2 | %29
 [dg] f2 g d2 | [Bd] B2 d c2 | B2 [DAd]4!D.C.! |] z6 | %33
"^Alternate bars 6 -7." !4!=b !4!=e'2 !4!b d'2 | g =b2 g b2 |] %35
V:2
 [G,B]2 [Gd]2 [Bd]2 | [A,^c]2 [Ae]2 [ce]2 | [D=cf]2 [Ad]2 [^Dcf]2 | E,2 [EBe]2 [EBe]2 | %4
 [Cc]2 [Gc]2 [Gc]2 | [G,G]2 [DG]2 [DG]2 | A,2 [^CE]2 [CE]2 | [D=c]2 [Fcd]2 [Fcd]2 | %8
 [G,B]2 [Gd]2 [Bd]2 | [A,^c]2 [Ae]2 [ce]2 | [D=cf]2 [Ad]2 [^Dcf]2 | E,2 [EBe]2 !-(!E2 | %12
 !-)!C2 [Gc]2 [Gc]2 | [G,G]2 [DG]2 G2 | E2 A,2 [Dc]2 | G,6 :|[K:Bb] B,2 [Bd]2 z2 | %17
 B,2 [Bdf]2 [Bdf]2 | !arpeggio![cfa]2 [cf]2 z2 | B2 [FBf]2 [FBf]2 | E2 [Be]2 [=EB^c]2 | %21
 F,2 [Bd]2 [G,F=B]2 | [C=E]2 G,2 [_G,_EB]2 | [F,FA]2 [CA]2 [CA]2 | B,2 [Bd]2 z2 | %25
 B,2 [Bdf]2 [Bdf]2 | !arpeggio![cfa]2 [cf]2 z2 | B2 [FBf]2 [FBf]2 | E2 [Be]2 [=EB^c]2 | %29
 F,2 [Bd]2 [G,F=B]2 | [C=E]2 [CE]2 [F,_EA]2 | [B,F]2 ^F,4 |] x6 | !1!!4![Gg]2 !4![dg]2 [Gg]2 | %34
 !0!A,2 [A^c]2 [Ac]2 |] %35

